Newaita-dark/.DP/16/network-wireless-signal-low.svg

<?xml version="1.0" encoding="UTF-8"?>
<svg xmlns="http://www.w3.org/2000/svg" xmlns:xlink="http://www.w3.org/1999/xlink" width="16pt" height="16pt" viewBox="0 0 16 16" version="1.1">
<g id="surface1">
<path style=" stroke:none;fill-rule:nonzero;fill:rgb(74.117649%,74.117649%,74.117649%);fill-opacity:1;" d="M 7.9375 10.128906 C 6.96875 10.128906 6.097656 10.542969 5.492188 11.207031 L 7.257812 13.769531 C 7.609375 14.101562 8.269531 14.101562 8.621094 13.769531 L 10.382812 11.207031 C 9.777344 10.542969 8.910156 10.128906 7.9375 10.128906 Z M 7.9375 10.128906 "/>
<path style=" stroke:none;fill-rule:nonzero;fill:rgb(74.117649%,74.117649%,74.117649%);fill-opacity:0.392157;" d="M 7.9375 2.191406 C 5.296875 2.191406 2.875 3.09375 0.957031 4.609375 L 2.085938 6.25 C 3.679688 4.953125 5.714844 4.175781 7.9375 4.175781 C 10.160156 4.175781 12.195312 4.953125 13.789062 6.25 L 14.917969 4.609375 C 13.003906 3.09375 10.578125 2.191406 7.9375 2.191406 Z M 7.9375 2.191406 "/>
<path style=" stroke:none;fill-rule:nonzero;fill:rgb(74.117649%,74.117649%,74.117649%);fill-opacity:0.392157;" d="M 7.9375 6.160156 C 6.132812 6.160156 4.484375 6.8125 3.214844 7.894531 L 4.351562 9.542969 C 5.292969 8.675781 6.550781 8.144531 7.9375 8.144531 C 9.324219 8.144531 10.585938 8.675781 11.527344 9.542969 L 12.660156 7.894531 C 11.390625 6.8125 9.742188 6.160156 7.9375 6.160156 Z M 7.9375 6.160156 "/>
</g>
</svg>

<svg xmlns="http://www.w3.org/2000/svg" width="16pt" height="16pt" viewBox="0 0 16 16"><g fill="#bdbdbd"><path d="M7.938 10.129c-.97 0-1.84.414-2.446 1.078l1.766 2.563c.351.332 1.012.332 1.363 0l1.762-2.563a3.29 3.29 0 0 0-2.445-1.078zm0 0"/><path d="M7.938 2.191c-2.641 0-5.063.903-6.981 2.418L2.086 6.25a9.234 9.234 0 0 1 5.851-2.074c2.223 0 4.258.777 5.852 2.074l1.129-1.64a11.203 11.203 0 0 0-6.98-2.419zm0 0" fill-opacity=".392"/><path d="M7.938 6.16a7.252 7.252 0 0 0-4.723 1.735l1.137 1.648a5.272 5.272 0 0 1 3.585-1.398c1.387 0 2.649.53 3.59 1.398l1.133-1.648A7.252 7.252 0 0 0 7.937 6.16zm0 0" fill-opacity=".392"/></g></svg>
